!!!COM: Hugo Wolf
!!!CNT: Deutscher
!!!TXO: Deutsche 
!!!OTL: Der Verzweifelte Liebhaber
!!!ODT: 1888/09/23
!!!ONM: No. 14
!!!LYR: Joseph von Eichendorff
!!!ENC: Brian Bice
!!!YOR: 45 Songs on Poems of Goethe and Eichendorff, Dover Publications, 1995
!!NB: Vocal melody and text only encoded.
**kern	**silbe
*clefG2	*
*k[b-e-]	*
*M6/8	*
=0	=0
4.r	.
4r	.
{8dd	{Stu-
=1	=1
4ee-	-die-
8ee-	-ren
4ee-	will
8ee-	nichts
=2	=2
8a	brin-
8a	-gen,
8r	.
4r	.
8a	mein
=3	=3
4dd	Rock
8dd	ha2lt
4dd	kei-
8dd	-nen
=4	=4
8g}	Stich,}
8r	.
8r	.
8r	.
{8g	{mei-
8g	-ne
=5	=5
4cc	Zi-
8cc	-ther
4cc	will
8cc	nicht
=6	=6
8f	klin-
8f	-gen
8r	.
4r	.
8f	mein
=7	=7
4b-	Schatz,
8b-	der
4a	mag
8g	mich
=8	=8
4.d}	nicht.}
4.r	.
=10	=10
4r	.
8r	.
4r	.
{8dd	{Ich
=11	=11
4cc	wollt',
8b-	im
4a	Gru2n
8g	spa-
=12	=12
[4.f#	-zier-
8f#]	|
8g	-te
8a	die
=13	=13
4b-	al-
8b-	-ler-
(8cc	scho2n-
8dd)	|
8ee-	-ste
=14	=14
4.dd}	Frau,}
4r	.
{8dd	{ich
=15	=15
4dd	wa2r'
8dd	ein
4een	Drach'
8een	und
=16	=16
[4.ff	fu2hr-
8ff]	|
8een	-te
8dd	sie
=17	=17
4cc	mit
8cc	mir
(8cc	fort
8dd)	|
8een	durchs
=18	=18
4.ff}	Blau.}
4r	.
{8f	{Ich
=19	=19
4g-	wollt',
8b-	ich
(8dd-	jagt'
8gg-)	|
8ff	ge-
=20	=20
4.een	-ru2-
4een	-stet
8g	und
=21	=21
4g-	legt'
8b-	die
(8dd-	Lan-
8gg-)	|
8ff	-ze
=22	=22
[4.een	aus,
8een]}	|}
8r	.
{8cc	{und
=23	=23
4ee-	jag-
8ee-	-te
8ee-	al-
8dd	-le
8ee-	Phi-
=24	=24
[4.ee-	-li-
8ee-]	|
8dd	-ster
8ee-	zur
=25	=25
4ee-	scho2-
8gg	-nen
4ff	Welt
8dd	hin-
=26	=26
4.ee-}	-aus.}
4r	.
{8dd	{Ich
=27	=27
4cc#	wollt',
8ccn	ich
(8b-	la2g'
8a)	|
8g	jetzt-
=28	=28
4f#	-un-
[8a	-der
4a]	|
8dd	im
=29	=29
4dd	Him-
8cc	-mel
4b-	still
8g	und
=30	=30
[4.dd	weit
4dd]}	|}
{8d	{und
=31	=31
4g	fragt'
8g	nach
4bn	all'
8bn	dem
=32	=32
4dd#	Plun-
8dd#	-der
[4.een	nichts
=33	=33
8een]	|
8ddn	vor
8cc	Zu-
4bn	-frie-
8a	-den-
=34	=34
4.g}	-heit.}
4r	.
8r	.
*-	*-
